packages/kaspersky-hexa-ui-icons/src/iconsSVGs/48/Spam.svg

<svg xmlns="http://www.w3.org/2000/svg" width="48" height="48" fill="none" viewBox="0 0 48 48"><path fill="currentColor" fill-rule="evenodd" d="M44.69 22H41v2h2.31l2.25 6H31v6H17v-6H2.44l2.25-6H7v-2H3.31L0 30.82V48h48V30.82zM2 46V32h13v6h18v-6h13v14zm9-44h20v6h6v20h2V6.59L32.41 0H9v28h2zm22 1.41L35.59 6H33zM20.47 8 15 13.47v7.06L20.47 26h7.06L33 20.53v-7.06L27.53 8zM31 19.71 26.7 24h-5.4L17 19.71v-5.42L21.3 10h5.4l4.3 4.29zM23 12h2v6h-2zm0 8h2v2h-2z" clip-rule="evenodd"/></svg>

<svg width="48" height="48" viewBox="0 0 48 48" fill="none" xmlns="http://www.w3.org/2000/svg">
<path fill-rule="evenodd" clip-rule="evenodd" d="M44.69 22H41V24H43.31L45.56 30H31V36H17V30H2.44L4.69 24H7V22H3.31L0 30.82V48H48V30.82L44.69 22ZM2 46V32H15V38H33V32H46V46H2ZM11 2H31V8H37V28H39V6.59L32.41 0H9V28H11V2ZM33 3.41L35.59 6H33V3.41ZM20.47 8L15 13.47V20.53L20.47 26H27.53L33 20.53V13.47L27.53 8H20.47ZM31 19.71L26.7 24H21.3L17 19.71V14.29L21.3 10H26.7L31 14.29V19.71ZM23 12H25V18H23V12ZM23 20H25V22H23V20Z"  fill="currentColor"/>
</svg>
